X: 11922
T: Empress, The
R: reel
M: 4/4
K: Amajor
cFFE A3B|cffe dcBd|cFFE A3B|dcBA Bcef|
cFFE ABAf|fecB abae|efec dcBA|efcB BcGA:|
A3e eAGA|eAAG F2Fc|cddc cBBA|BcFF FAcd|
effe BccB|dcAG F2FG|ABAG FGAB|BEEB Bcde:|

